X:1
T:Title
%%score [ 1 2 3 4 ]
L:1/8
Q:1/4=120
M:4/4
K:Eb
V:1 treble nm="S."
V:2 treble nm="A."
V:3 treble-8 nm="T."
V:4 bass nm="B."
V:1
"^Shakespeare""^Othello IV iii" B | BB BA G2 B2 |"^Poor Barbara" A3 G F2 z A | AA AG F2 A2 | %4
w: My|mo- ther had a maid call'd|Bar- ba- ra, my|mo- ther had a maid call'd|
 G3"^William Shield""^(1748-1829)" F E2 z2 | e4 e2 e2 | d4 z4 | e4 e2 e2 | d4 z2 d2 | c3 c c2 c2 | %10
w: Bar- ba- ra,|She was in|love;|she was in|love, and|he she lov'd prov'd|
 d2 c2 d2 e2 | d2 c2 z2 f2 | c3 c c2 c2 | d2 c2 d2 e2 |{d} c2 B2 z4 :| F2 FF F2 F2 | _G2 F4 B2 | %17
w: false and did for-|sake her, and|he she lov'd prov'd|false and did for-|sake her.|She had a song of|wil- low; an|
 A4 _G4 | F4 z4 | F2 FF F2 F2 | !courtesy!=G2 F4 FF | _G4 =A4 | BB B6 | B2 BA G2 BB | A2 AG F4 | %25
w: old thing|'twas,|but it ex- press'd her|for- tune, and she|di- ed|sing- ing it.|That song to- night will not|go from my mind,|
 A2 AG F2 GA | G2 GF E4 | c4 c2 c2 | B6 z2 |{E} c4 c2 c2 | B4 z2 FF | F2 FF FG AB | c6 e2 | %33
w: that song to- night will not|go from my mind.|I've much a|do,|I've much a|do not to|go hang my head all o' one|side and|
 c2 B2 A2 (GA) | G3 F E4 | c8 | B3 (A G4) |{e} d8 | e3 e e4 |] %39
w: sing it like poor *|Bar- ba- ra,|poor|Bar- ba- ra,|poor|Bar- ba- ra.|
V:2
 G | GG GF E2 G2 | F3 E D2 z F | FF FE D2 F2 | E3 B, G,2 z2 | G4 G2 G2 | F4 z4 | z8 | z4 z2 B2 | %9
w: My|mo- ther had a maid call'd|Bar- ba- ra, my|mo- ther had a maid call'd|Bar- ba- ra,|She was in|love;||and|
w: |||||||||
 =A3 A A2 A2 | B2 =A2 B2 c2 | B2 =A2 z4 | =A3 A A2 A2 | B2 =A2 B2 B2 | =A2 B2 z4 :| D2 DD D2 D2 | %16
w: he she lov'd prov'd|false and did for-|sake her,|he she lov'd prov'd|false and did for-|sake her.|She had a song of|
w: |||||||
 E2 D4 _G2 | F4 E4 | D4 z4 | D2 DD D2 D2 | E2 D4 DD | E4 E4 | DD D6 | G2 GF E2 GG | F2 FE D4 | %25
w: wil- low; an|old thing|'twas,|but it ex- press'd her|for- tune, and she|di- ed|sing- ing it.|That song to- night will not|go from my mind,|
w: |||||||||
 F2 FE D2 EF | E2 EB, G,4 | A4 A2 A2 | G6 z2 | z8 | z8 | z8 | z4 z2 E2 | (EF) G2 (CD) E2 | %34
w: ||I've much a|do,||||And|sing * it like * poor|
w: that song to- night will not|go from my mind.||||||||
 E3 D E4 | A8 | G3 F E4 | F8 | G3 G G4 |] %39
w: Bar- ba- ra,|poor|Bar- ba- ra,|poor|Bar- ba- ra.|
w: |||||
V:3
 z | z8 | z8 | z8 | z8 | B4 B2 B2 | B4 z4 | z8 | z4 z2 f2 | f3 f f2 f2 | f2 f2 f2 g2 | f2 f2 z4 | %12
w: |||||She was in|love;||and|he she lov'd prov'd|false and did for-|sake her,|
 f3 f f2 f2 | f3 f f2 g2 | f2 d2 z4 :| z8 | z4 z2 B2 | B4 B4 | B4 z4 | d2 dd d2 d2 | c2 d4 BB | %21
w: he she lov'd prov'd|false and did for-|sake her.||an|old thing|'twas,|but it ex- press'd her|for- tune, and she|
 B4 _G4 | FF F6 | z8 | z8 | z8 | z8 | e4 e2 e2 | e6 z2 | z8 | z8 | z8 | z4 z2 B2 | c2 e2 f2 (Bc) | %34
w: di- ed|sing- ing it.|||||I've much a|do,||||And|sing it like poor *|
 B3 A G4 | e8 | e3 e e4 | B8 | B3 B B4 |] %39
w: Bar- ba- ra,|poor|Bar- ba- ra,|poor|Bar- ba- ra.|
V:4
 z | z8 | z8 | z8 | z8 | E,4 (E,F,) (G,A,) | B,4 z4 | z8 | z4 z2 B,2 | F,3 F, F,2 F,2 | %10
w: |||||She was * in *|love;||and|he she lov'd prov'd|
 B,2 F,2 B,2 E,2 | F,2 F,2 z4 | F,3 F, F,2 F,2 | B,2 F,2 B,2 E,2 | F,2 B,,2 z4 :| %15
w: false and did for-|sake her,|he she lov'd prov'd|false and did for-|sake her.|
 B,2 B,B, B,2 B,2 | =A,2 B,4 E,2 | D,4 E,4 | B,,4 z4 | B,2 B,B, B,2 B,2 | =A,2 B,4 B,B, | %21
w: She had a song of|wil- low; an|old thing|'twas,|but it ex- press'd her|for- tune, and she|
 _G,4 E,4 | B,,B,, B,,6 | z8 | z8 | z8 | z8 | A,,4 (A,,B,,) (C,D,) | E,6 z2 | z8 | z8 | z8 | %32
w: di- ed|sing- ing it.|||||I've much * ~~a *|do,||||
 z4 z2 G,2 | A,2 G,2 F,2 E,2 | B,,3 B,, E,4 | A,,8 | E,3 E, E,4 | B,8 | E,3 E, E,4 |] %39
w: And|sing it like poor|Bar- ba- ra,|poor|Bar- ba- ra,|poor|Bar- ba- ra.|

